src/assets/svg/location-light.svg

<svg width="23" height="28" viewBox="0 0 23 28" fill="none" xmlns="http://www.w3.org/2000/svg">
<path d="M11.1718 16.5572C8.63999 16.5572 6.57178 14.3956 6.57178 11.7216C6.57178 9.04761 8.63999 6.89844 11.1718 6.89844C13.7036 6.89844 15.7718 9.06011 15.7718 11.7341C15.7718 14.4081 13.7036 16.5572 11.1718 16.5572ZM11.1718 8.77272C9.62656 8.77272 8.35472 10.0972 8.35472 11.7341C8.35472 13.371 9.61467 14.6955 11.1718 14.6955C12.7289 14.6955 13.9888 13.371 13.9888 11.7341C13.9888 10.0972 12.717 8.77272 11.1718 8.77272Z" fill="#141416" fill-opacity="0.5"/>
<path d="M11.4962 27.5966C9.68166 27.5966 7.85485 26.8781 6.43263 25.454C2.81579 21.8104 -1.18112 15.9986 0.326915 9.08339C1.68783 2.80969 6.92305 0 11.4962 0C11.4962 0 11.4962 0 11.5085 0C16.0816 0 21.3169 2.80969 22.6778 9.09622C24.1736 16.0114 20.1766 21.8104 16.5598 25.454C15.1376 26.8781 13.3108 27.5966 11.4962 27.5966ZM11.4962 1.92445C7.92841 1.92445 3.34299 3.91304 2.12921 9.50677C0.805074 15.5495 4.43418 20.7584 7.71998 24.0556C9.84105 26.1981 13.1636 26.1981 15.2847 24.0556C18.5583 20.7584 22.1874 15.5495 20.8877 9.50677C19.6617 3.91304 15.064 1.92445 11.4962 1.92445Z" fill="#141416" fill-opacity="0.5"/>
</svg>

<svg xmlns="http://www.w3.org/2000/svg" width="23" height="28" fill="none"><path fill="#141416" fill-opacity=".5" d="M11.172 16.557c-2.532 0-4.6-2.161-4.6-4.835s2.068-4.824 4.6-4.824 4.6 2.162 4.6 4.836-2.068 4.823-4.6 4.823m0-7.784c-1.545 0-2.817 1.324-2.817 2.961s1.26 2.961 2.817 2.961 2.817-1.324 2.817-2.96c0-1.638-1.272-2.962-2.817-2.962"/><path fill="#141416" fill-opacity=".5" d="M11.496 27.597c-1.814 0-3.641-.719-5.063-2.143C2.816 21.81-1.181 15.999.327 9.084 1.687 2.81 6.923 0 11.497 0h.011c4.574 0 9.809 2.81 11.17 9.096 1.496 6.915-2.501 12.714-6.118 16.358-1.422 1.424-3.25 2.143-5.064 2.143m0-25.673c-3.568 0-8.153 1.989-9.367 7.583C.805 15.55 4.434 20.758 7.72 24.056c2.121 2.142 5.444 2.142 7.565 0 3.273-3.298 6.902-8.506 5.603-14.55-1.226-5.593-5.824-7.582-9.392-7.582"/></svg>
